client/public/img/bag__icon.svg

<svg width="20" height="20" viewBox="0 0 20 20" fill="none" xmlns="http://www.w3.org/2000/svg">
<path fill-rule="evenodd" clip-rule="evenodd" d="M9.98885 0C12.3911 0 14.3755 1.92228 14.6202 4.38082L14.6885 4.38167C16.0211 4.38167 17.6413 5.31112 18.1881 7.91804L18.9133 13.8123C19.1733 15.7147 18.848 17.2406 17.9446 18.3351C17.0458 19.4238 15.6231 20 13.8301 20H6.15807C4.1886 20 2.81649 19.4933 1.96271 18.4519C1.10526 17.4076 0.81852 15.8411 1.11077 13.7969L1.82394 7.98077C2.29264 5.31402 4.00663 4.38167 5.3337 4.38167C5.44827 3.27218 5.92463 2.2167 6.68035 1.42555C7.54884 0.51926 8.74633 0 9.96955 0H9.98885ZM14.6885 5.82942H5.3337C4.92841 5.82942 3.57377 6.00122 3.18502 8.20566L2.47553 13.9967C2.24485 15.621 2.42314 16.7966 3.00673 17.5079C3.58296 18.2106 4.6141 18.5522 6.15807 18.5522H13.8301C14.7933 18.5522 16.1084 18.3505 16.9024 17.3873C17.5329 16.6238 17.7498 15.4869 17.5476 14.0073L16.8317 8.16609C16.5265 6.72702 15.7215 5.82942 14.6885 5.82942ZM12.6692 8.51654C13.0497 8.51654 13.3796 8.84083 13.3796 9.24041C13.3796 9.63999 13.092 9.96429 12.7115 9.96429H12.6692C12.2887 9.96429 11.9799 9.63999 11.9799 9.24041C11.9799 8.84083 12.2887 8.51654 12.6692 8.51654ZM7.31118 8.51654C7.69165 8.51654 8.02158 8.84083 8.02158 9.24041C8.02158 9.63999 7.73301 9.96429 7.35253 9.96429H7.31118C6.9307 9.96429 6.6219 9.63999 6.6219 9.24041C6.6219 8.84083 6.9307 8.51654 7.31118 8.51654ZM9.9861 1.44775H9.97231C9.10751 1.44775 8.26476 1.81355 7.6536 2.45152C7.15577 2.97201 6.83017 3.65624 6.72485 4.38122L13.2309 4.38149C12.9947 2.7231 11.6292 1.44775 9.9861 1.44775Z" fill="white"/>
</svg>

<svg xmlns="http://www.w3.org/2000/svg" width="20" height="20" fill="none" xmlns:v="https://vecta.io/nano"><path fill-rule="evenodd" d="M9.989 0c2.402 0 4.387 1.922 4.631 4.381l.068.001c1.333 0 2.953.929 3.5 3.536l.725 5.894c.26 1.902-.065 3.428-.969 4.523C17.046 19.424 15.623 20 13.83 20H6.158c-1.969 0-3.342-.507-4.195-1.548s-1.144-2.611-.852-4.655l.713-5.816c.469-2.667 2.183-3.599 3.51-3.599A5.05 5.05 0 0 1 6.68 1.426C7.549.519 8.746 0 9.97 0h.019zm4.7 5.829H5.334c-.405 0-1.76.172-2.149 2.376l-.709 5.791c-.231 1.624-.052 2.8.531 3.511.576.703 1.607 1.044 3.151 1.044h7.672c.963 0 2.278-.202 3.072-1.165.631-.764.847-1.9.645-3.38l-.716-5.841c-.305-1.439-1.11-2.337-2.143-2.337zm-2.019 2.687c.38 0 .71.324.71.724s-.288.724-.668.724h-.042c-.38 0-.689-.324-.689-.724s.309-.724.689-.724zm-5.358 0c.38 0 .71.324.71.724s-.289.724-.669.724h-.041c-.38 0-.689-.324-.689-.724s.309-.724.689-.724zm2.675-7.069h-.014a3.23 3.23 0 0 0-2.319 1.004 3.54 3.54 0 0 0-.929 1.93h6.506c-.236-1.658-1.602-2.934-3.245-2.934z" fill="#fff"/></svg>
